src/img/Yandex.svg

<svg width="21" height="20" viewBox="0 0 21 20" fill="none" xmlns="http://www.w3.org/2000/svg">
<path fill-rule="evenodd" clip-rule="evenodd" d="M3.77983 9.9307C3.77983 8.94664 3.86303 8.32213 5.91811 6.80087C7.61949 5.54138 13.073 1.23743 13.073 1.23743V8.42209H17.2203V18.7627H5.07518C4.36275 18.7627 3.77963 18.1844 3.77963 17.4778L3.77983 9.93076V9.9307Z" fill="#3E9CDC"/>
<path fill-rule="evenodd" clip-rule="evenodd" d="M13.073 8.422V12.585L5.45212 17.7335L15.0874 14.6246V8.422H13.073Z" fill="black" fill-opacity="0.2"/>
<path fill-rule="evenodd" clip-rule="evenodd" d="M9.5904 8.20685C10.0361 7.68023 10.687 7.49436 11.0443 7.79173C11.4017 8.08915 11.3303 8.75719 10.8846 9.2838C10.4392 9.81035 9.78811 9.99602 9.43072 9.69859C9.07333 9.40123 9.14497 8.73333 9.5904 8.20678V8.20685Z" fill="#231F20"/>
</svg>

<svg width="21" height="20" fill="none" xmlns="http://www.w3.org/2000/svg"><path fill-rule="evenodd" clip-rule="evenodd" d="M3.78 9.93c0-.983.083-1.608 2.138-3.13 1.701-1.259 7.155-5.563 7.155-5.563v7.185h4.147v10.34H5.075a1.294 1.294 0 01-1.295-1.284V9.93z" fill="#3E9CDC"/><path fill-rule="evenodd" clip-rule="evenodd" d="M13.073 8.422v4.163l-7.62 5.148 9.634-3.108V8.422h-2.014z" fill="#000" fill-opacity=".2"/><path fill-rule="evenodd" clip-rule="evenodd" d="M9.59 8.207c.446-.527 1.097-.713 1.454-.415.358.297.286.965-.16 1.492-.445.526-1.096.712-1.453.415-.358-.298-.286-.966.16-1.492z" fill="#231F20"/></svg>
